X:1
T:Gráinne's
R:jig
M:6/8
L:1/8
K:G
B2c|:dGF GDB,|G,A,G, DB,D|EcB ABG|FED cBA|
|(3Bcd B GFG|~E2E CEG|DFc BDF|1 AGF GBc:|2 AGF G2A|]
|:~B2A Ggf|ecA ~E2E|DFA ~f2f|ed^c d2=c|
|(3Bcd B Ggf|ecA ~E2E|DFc BDF|1 AGF G2A:|2 AGF G2D|]
|:GBd ~g2g|edc BA^G|A^ce ~a2g|fd^c def|
|gdB Ggf|ecA ~E2E|DFc BDF|1 AGF G2D:|2 AGF GBc|]